src/main/resources/icons/AllIcons/actions/properties.svg

<!-- Copyright 2000-2021 JetBrains s.r.o. Use of this source code is governed by the Apache 2.0 license that can be found in the LICENSE file. -->
<svg xmlns="http://www.w3.org/2000/svg" width="16" height="16" viewBox="0 0 16 16">
  <path fill="#6E6E6E" fill-rule="evenodd" d="M9,11 C9.74025244,11 10.3865739,11.4021661 10.7323937,11.9999275 L15,12 L15,14 L10.7318119,14.0010775 C10.3858493,14.5982846 9.7398375,15 9,15 C8.2601625,15 7.61415066,14.5982846 7.26818814,14.0010775 L1,14 L1,12 L7.26760632,11.9999275 C7.61342606,11.4021661 8.25974756,11 9,11 Z M9,12 C8.44771525,12 8,12.4477153 8,13 C8,13.5522847 8.44771525,14 9,14 C9.55228475,14 10,13.5522847 10,13 C10,12.4477153 9.55228475,12 9,12 Z M6,6 C6.74025244,6 7.38657394,6.40216612 7.73239368,6.99992752 L15,7 L15,9 L7.73181186,9.0010775 C7.38584934,9.59828461 6.7398375,10 6,10 C5.2601625,10 4.61415066,9.59828461 4.26818814,9.0010775 L1,9 L1,7 L4.26760632,6.99992752 C4.61342606,6.40216612 5.25974756,6 6,6 Z M6,7 C5.44771525,7 5,7.44771525 5,8 C5,8.55228475 5.44771525,9 6,9 C6.55228475,9 7,8.55228475 7,8 C7,7.44771525 6.55228475,7 6,7 Z M11,1 C11.7402524,1 12.3865739,1.40216612 12.7323937,1.99992752 L15,2 L15,4 L12.7318119,4.0010775 C12.3858493,4.59828461 11.7398375,5 11,5 C10.2601625,5 9.61415066,4.59828461 9.26818814,4.0010775 L1,4 L1,2 L9.26760632,1.99992752 C9.61342606,1.40216612 10.2597476,1 11,1 Z M11,2 C10.4477153,2 10,2.44771525 10,3 C10,3.55228475 10.4477153,4 11,4 C11.5522847,4 12,3.55228475 12,3 C12,2.44771525 11.5522847,2 11,2 Z"/>
</svg>

<svg xmlns="http://www.w3.org/2000/svg" width="16" height="16" viewBox="0 0 16 16"><rect id="frame" width="16" height="16" fill="none"/><path fill="#6E6E6E" fill-rule="evenodd" d="M9 11a2 2 0 0 1 1.732 1H15v2l-4.268.001a2 2 0 0 1-3.464 0L1 14v-2h6.268A2 2 0 0 1 9 11zm0 1a1 1 0 1 0 0 2 1 1 0 0 0 0-2zM6 6a2 2 0 0 1 1.732 1H15v2l-7.268.001a2 2 0 0 1-3.464 0L1 9V7h3.268A2 2 0 0 1 6 6zm0 1a1 1 0 1 0 0 2 1 1 0 0 0 0-2zm5-6a2 2 0 0 1 1.732 1H15v2l-2.268.001a2 2 0 0 1-3.464 0L1 4V2h8.268A2 2 0 0 1 11 1zm0 1a1 1 0 1 0 0 2 1 1 0 0 0 0-2z"/></svg>
